web/ui/src/components/theme/workflow/svgs/expansion.svg

<svg height="14" viewBox="0 0 14 14" width="14" xmlns="http://www.w3.org/2000/svg"><g fill="none" transform="matrix(1 0 0 -1 0 14)"><path d="m0 0h14v14h-14z" fill="#000" opacity="0"/><path d="m3.2375 2.625h2.0125c.2625 0 .4375-.175.4375-.4375s-.175-.4375-.4375-.4375h-3.0625s0 0-.0875 0h-.0875c-.0875.0875-.175.175-.2625.2625v.0875.0875 3.0625c0 .2625.175.4375.4375.4375s.4375-.175.4375-.4375v-2.0125l2.975 2.975c.175.175.4375.175.6125 0 .175-.175.175-.4375 0-.6125zm8.575 5.6875c-.2625 0-.4375.175-.4375.4375v2.0125l-2.975-2.975c-.175-.175-.4375-.175-.6125 0-.175.175-.175.4375 0 .6125l2.975 2.975h-2.0125c-.2625 0-.4375.175-.4375.4375s.175.4375.4375.4375h3.0625.0875.0875c.0875-.0875.175-.175.2625-.2625v-.0875s0 0 0-.0875v-3.0625c0-.2625-.175-.4375-.4375-.4375z" fill="#6b7b8d"/></g></svg>

<?xml version="1.0" encoding="UTF-8"?>
<svg width="14px" height="14px" viewBox="0 0 14 14" version="1.1" xmlns="http://www.w3.org/2000/svg" xmlns:xlink="http://www.w3.org/1999/xlink">
    <title>展开收缩</title>
    <g id="页面-1" stroke="none" stroke-width="1" fill="none" fill-rule="evenodd">
        <g id="建木CI-图形编辑器-节点参数配置（先选版本）备份" transform="translate(-1449.000000, -490.000000)" fill-rule="nonzero">
            <g id="展开收缩" transform="translate(1456.000000, 497.000000) scale(1, -1) translate(-1456.000000, -497.000000) translate(1449.000000, 490.000000)">
                <rect id="矩形" fill="#000000" opacity="0" x="0" y="0" width="14" height="14"></rect>
                <path d="M3.2375,2.625 L5.25,2.625 C5.5125,2.625 5.6875,2.45 5.6875,2.1875 C5.6875,1.925 5.5125,1.75 5.25,1.75 L2.1875,1.75 C2.1875,1.75 2.1875,1.75 2.1,1.75 C2.1,1.75 2.0125,1.75 2.0125,1.75 C1.925,1.8375 1.8375,1.925 1.75,2.0125 C1.75,2.0125 1.75,2.1 1.75,2.1 C1.75,2.1 1.75,2.1 1.75,2.1875 L1.75,5.25 C1.75,5.5125 1.925,5.6875 2.1875,5.6875 C2.45,5.6875 2.625,5.5125 2.625,5.25 L2.625,3.2375 L5.6,6.2125 C5.775,6.3875 6.0375,6.3875 6.2125,6.2125 L6.2125,6.2125 C6.3875,6.0375 6.3875,5.775 6.2125,5.6 L3.2375,2.625 Z M11.8125,8.3125 C11.55,8.3125 11.375,8.4875 11.375,8.75 L11.375,10.7625 L8.4,7.7875 C8.225,7.6125 7.9625,7.6125 7.7875,7.7875 L7.7875,7.7875 C7.6125,7.9625 7.6125,8.225 7.7875,8.4 L10.7625,11.375 L8.75,11.375 C8.4875,11.375 8.3125,11.55 8.3125,11.8125 C8.3125,12.075 8.4875,12.25 8.75,12.25 L11.8125,12.25 C11.8125,12.25 11.8125,12.25 11.9,12.25 C11.9,12.25 11.9875,12.25 11.9875,12.25 C12.075,12.1625 12.1625,12.075 12.25,11.9875 C12.25,11.9875 12.25,11.9 12.25,11.9 C12.25,11.9 12.25,11.9 12.25,11.8125 L12.25,8.75 C12.25,8.4875 12.075,8.3125 11.8125,8.3125 Z" id="形状" fill="#6B7B8D"></path>
            </g>
        </g>
    </g>
</svg>
